icons/book-open-fill.svg

<svg xmlns="http://www.w3.org/2000/svg" width="24" height="24" fill="none"><g clip-path="url(#a)"><g><path fill="#121212" d="M21 21H13V6C13 5.20435 13.3161 4.44129 13.8787 3.87868C14.4413 3.31607 15.2044 3 16 3H21C21.2652 3 21.5196 3.10536 21.7071 3.29289C21.8946 3.48043 22 3.73478 22 4V20C22 20.2652 21.8946 20.5196 21.7071 20.7071C21.5196 20.8946 21.2652 21 21 21ZM11 21H3C2.73478 21 2.48043 20.8946 2.29289 20.7071C2.10536 20.5196 2 20.2652 2 20V4C2 3.73478 2.10536 3.48043 2.29289 3.29289C2.48043 3.10536 2.73478 3 3 3H8C8.79565 3 9.55871 3.31607 10.1213 3.87868C10.6839 4.44129 11 5.20435 11 6V21ZM11 21H13V23H11V21Z"/></g></g><defs><clipPath id="a"><rect width="24" height="24" fill="white"/></clipPath></defs></svg>

<svg width="24" height="24" fill="none" xmlns="http://www.w3.org/2000/svg"><g clip-path="url(#a)"><path d="M21 21h-8V6a3 3 0 0 1 3-3h5a1 1 0 0 1 1 1v16a1 1 0 0 1-1 1Zm-10 0H3a1 1 0 0 1-1-1V4a1 1 0 0 1 1-1h5a3 3 0 0 1 3 3v15Zm0 0h2v2h-2v-2Z" /></g><defs><clipPath id="a"><path fill="#fff" d="M0 0h24v24H0z"/></clipPath></defs></svg>
